X: 7974
T: Congress, The
R: reel
M: 4/4
K: Adorian
|:eAAG ABcd|eaaf gedg|eAcA eAcA|BGGF GBcd|
eAAG ABcd|eaaf gedB|cBcd eged|cABc ABcd:|
|:eaag abag|eaag egdg|e/f/gdg e/f/gdg|eaaf gfed|
eaag abag|eaaf eged|cBcd eged|cABc ABcd:|

